X:820
T:Sun Assembly
C:anon.
F:http://abc.musicaviva.com/tunes/anon/sun-assembly/sun-assembly-1.abc
%Posted Sep 6th 1999 by Dave Holland in response to a request
%for the tune.
P:AB
M:2/4
L:1/8
Q:C2=110
K:A
P:A
"A"a2 fe | dc BA | "D"f2 A2 | "E"G2 FE |\
  "A"Ac ec | "B7"B^d fa |"E"ge "B7"f^d |"E"e2 E2 |
"A"a2 fe | dc BA | "D"f2 A2 | "E"G2 FE |\
  "D"FA dF | "E7"EG Bd |"A"cB "E7"AG | "A"A2 A,2 ||
P:B
"A"ce ag | "D"f2 ed | "A"ce ag | "D"f2 ed |\
  "A"ce ag | "D"gf "A"fe |"D"ed dc | "E"c2 "E7"B2 |
"D"dc BA | "E"G/2A/2B E2 | "D"dc BA |  "Bm7"f/2g/2a "E"g2 |\
  "D"fA af | "A"ec BA | "E"E2 "E7"G2 | "A"A4 ||
W:
W:
W:  From Musica Viva - http://www.musicaviva.com
W:  the Internet center for free sheet music downloads.

